X: 2394
T: HIGH LEVEL HORNPIPE
R: Hornpipe.
%R: hornpipe, reel
B: James Kerr "Merry Melodies" v.2 p.44 #394
Z: 2016 John Chambers <jc:trillian.mit.edu>
M: C
L: 1/8
K: Bb
(ud>c) |\
BdFB DFBd | fbdf BdcB |\
ABcd e=ef^f | g^fag =f_edc |\
BdFB DFBd | fbdf BdcB | ABcd egfA | c2B2B2 H:|
|: u(cB) |\
Afcf Afcf | AFAc fcAc |\
dfBf dfBf | dBdf bfdf |\
=egcg egce | =eceg bgeg |\
f=efa gbeg |[1 f2f2f2 :|2 f=eag fe_ec |]
